X:1
T:Glory Ever Be to Jesus
T:Glory Ever Be to Jesus
T:Ira David Sankey
T:Frances Jane (Fanny) Crosby, 1887
T:Public Domain Courtesy of the Cyber Hymnal™
C:Ira David Sankey
Z:Public Domain
Z:Courtesy of the Cyber Hymnal™
%%score ( 1 2 ) ( 3 4 )
L:1/8
Q:1/4=105
M:4/4
K:Ab
V:1 treble 
V:2 treble 
V:3 bass 
V:4 bass 
V:1
 [CE]2 [EA]2 [EA]3 [EB] | ([EA][DG]) (FG) [CA]2 [CE]2 | E2 [EB]2 [EB]3 [Ec] | %3
w: 1.~Glo- ry ev- er|be * to * Je- sus,|God’s own well be-|
w: 2.~Oh the wear- y|days * of * wand- ’ring,|Long- ing, hop- ing|
w: 3.~In His safe and|ho- * ly * keep- ing,|’Neath the sha- dow|
 ([DB][CA]) ([DG][CA]) (B- B3) x2 | [CE]2 [EA]2 [EA]3 [FB] | ([EA][DG]) (FG) [CA]2 [EB]2 | %6
w: lov- * èd * Son; *|By His grace He|hath * re- * deemed us,|
w: for * the * light; *|These at last all|lie * be- * hind us,|
w: of * His * wing, *|Glad- ly in His|love * con- * fid- ing,|
 [EB]2 [_Ge]2 (ed) (cB) | [EA]2 [DG]2 [CA]4 ||"^Refrain" [EB]2 [EB]2 [EB]3 [Ec] | %9
w: “It is fin- * ished,” *|all is done.||
w: Je- sus is * our *|strength and might.|Saved by grace through|
w: May our souls * His *|prais- es sing.||
 (dc) (Bc) [Ed]2 [EB]2 | [Ec]2 [Ec]2 [Ec]3 [Ee] | ([Ge][F=d]) (cd) (e- e3) x2 | %12
w: |||
w: faith * in * Je- sus,|Saved by His own|pre- * cious * blood, *|
w: |||
 [CE]2 [EA]2 [EA]3 [FB] | ([EA][DG]) (FG) [CA]2 [EB]2 | [Ec]2 [_Ge]2 (ed) (cB) | %15
w: |||
w: May we in His|love * a- * bid- ing,|Fol- low on * to *|
w: |||
 [EA]2 [DG]2 [CA]4 |] %16
w: |
w: know the Lord.|
w: |
V:2
 x8 | x2 D2 x4 | E2 x6 | x4 E3 (GFE) | x8 | x2 D2 x4 | x4 F2 F2 | x8 || x8 | E2 E2 x4 | x8 | %11
 x2 A2 G3 (_dBG) | x8 | x2 D2 x4 | x4 F2 F2 | x8 |] %16
V:3
 A,2 [A,C]2 [A,C]3 [D,D] | (CB,) (A,B,) [A,,A,]2 [A,,A,]2 | [E,G,]2 [E,G,]2 [E,G,]3 [E,A,] | %3
 (G,A,) (B,A,) [E,G,]4 x2 | A,2 [A,C]2 [A,C]3 [D,D] | (CB,) (A,B,) [F,A,]2 [E,G,]2 | %6
 A,2 [C,A,]2 (A,B,) (ED) | [E,C]2 [E,B,]2 [A,,A,]4 || [E,G,]2 [E,G,]2 [E,G,]3 [E,A,] | %9
 (B,A,) (G,A,) [E,B,]2 [E,G,]2 | A,2 A,2 A,3 [A,C] | B,2 [B,,B,]2 [E,B,]4 x2 | %12
 A,2 [A,C]2 [A,C]3 [D,D] | (CB,) (A,B,) [F,A,]2 [E,G,]2 | A,2 [C,A,]2 (A,B,) (ED) | %15
 [E,C]2 [E,B,]2 [A,,A,]4 |] %16
V:4
 A,2 x6 | E,2 E,2 x4 | x8 | E,2 E,2 x6 | A,2 x6 | E,2 E,2 x4 | A,2 D,2 D,2 x2 | x8 || x8 | %9
 E,2 E,2 x4 | A,2 A,2 A,3 x | B,2 x8 | A,2 x6 | E,2 E,2 x4 | A,2 D,2 D,2 x2 | x8 |] %16

